public/icon/24/link.svg

<svg width="24" height="24" viewBox="0 0 24 24" fill="none" xmlns="http://www.w3.org/2000/svg">
<path d="M18.364 13.2071L20.1317 11.4393C22.0844 9.48671 22.0844 6.32088 20.1317 4.36826C18.1791 2.41564 15.0133 2.41564 13.0607 4.36826L10.2322 7.19669C8.27961 9.14931 8.27961 12.3151 10.2322 14.2678C10.6645 14.7 11.2289 15.1323 11.8648 15.4636M5.63604 11.7929L3.86827 13.5606C1.91565 15.5133 1.91565 18.6791 3.86827 20.6317C5.8209 22.5843 8.98672 22.5843 10.9393 20.6317L13.7678 17.8033C15.7204 15.8507 15.7204 12.6848 13.7678 10.7322C13.3355 10.3 12.7711 9.86769 12.1352 9.53639" stroke="#092E24" style="stroke:#092E24;stroke:color(display-p3 0.0353 0.1804 0.1412);stroke-opacity:1;" stroke-width="2" stroke-miterlimit="10" stroke-linecap="round" stroke-linejoin="round"/>
</svg>

<svg viewBox="0 0 24 24">
  <g class="link">
    <path d="m18.364 13.207 1.768-1.768a5 5 0 1 0-7.071-7.07l-2.829 2.828a5 5 0 0 0 0 7.07 6.81 6.81 0 0 0 1.633 1.197m-6.229-3.671L3.868 13.56a5 5 0 0 0 7.071 7.07l2.829-2.828a5 5 0 0 0 0-7.07 6.796 6.796 0 0 0-1.633-1.197" class="fill-none stroke-current stroke-2 sl-r"/>
  </g>
</svg>
